#src/img/common/facebook.svg

<svg width="23" height="23" viewBox="0 0 23 23" fill="none" xmlns="http://www.w3.org/2000/svg">
  <path d="M17.2488 0.00478553L14.2663 0C10.9155 0 8.75003 2.22168 8.75003 5.66033V8.27012H5.7512C5.49207 8.27012 5.28223 8.48021 5.28223 8.73934V12.5206C5.28223 12.7798 5.49231 12.9896 5.7512 12.9896H8.75003V22.531C8.75003 22.7902 8.95987 23 9.21901 23H13.1316C13.3908 23 13.6006 22.7899 13.6006 22.531V12.9896H17.1069C17.3661 12.9896 17.5759 12.7798 17.5759 12.5206L17.5773 8.73934C17.5773 8.61492 17.5278 8.49576 17.44 8.40771C17.3522 8.31965 17.2325 8.27012 17.1081 8.27012H13.6006V6.05777C13.6006 4.99442 13.854 4.45462 15.2391 4.45462L17.2483 4.4539C17.5072 4.4539 17.7171 4.24381 17.7171 3.98491V0.473768C17.7171 0.21511 17.5075 0.00526409 17.2488 0.00478553Z" fill="#202020"/>
</svg>

<svg width="23" height="23" fill="none" xmlns="http://www.w3.org/2000/svg"><path d="M17.249.005L14.266 0C10.916 0 8.75 2.222 8.75 5.66v2.61H5.751a.47.47 0 00-.469.47v3.78c0 .26.21.47.47.47H8.75v9.541c0 .26.21.469.469.469h3.913c.259 0 .469-.21.469-.469V12.99h3.506c.26 0 .469-.21.469-.47l.001-3.78a.47.47 0 00-.469-.47h-3.507V6.058c0-1.064.253-1.603 1.638-1.603l2.01-.001c.258 0 .468-.21.468-.47V.475a.47.47 0 00-.468-.47z" fill="#202020"/></svg>
